X:1
T:Title
%%score { 1 | 2 }
L:1/8
M:6/4
K:Ab
V:1 treble nm="Grand Piano"
V:2 bass 
V:1
 z6 z4 [CE]2 | [CA]3 [DB] [CA]2 [DF]2 [CE]2 [A,C]2 | [CE]6 [EA]4 B2 | c2 e2 e2 c2 B2 A2 | %4
[M:5/4] B2- B2- B6 |[M:1/4] E2 |[M:6/4] [CA]3 [DB] [CA]2 [DF]2 [CE]2 [A,C]2 | [CE]6 [EA]4 [Fd]2 | %8
 c3 B A2 B2 F2 G2 |[M:5/4] [CA]2- [CA]2- [CA]6 |[M:1/4] c2 |[M:6/4] e3 e e2 e2 [EA]2 B2 | %12
 c6 A4 c2 | [GB]3 [GB] [GB]2 E2 e2 d2 |[M:5/4] c2- c2- c6 |[M:1/4] c2 |[M:6/4] e3 e e2 f2 e2 c2 | %17
 e6 A4 [AB]2 | [Ac]4 [Ac][Ac] [Gc]4 [DGB]2 |[M:5/4] [CEA]2- [CEA]2- [CEA]6 |] %20
V:2
 z6 z4 [A,,A,]2 | [A,,A,]3 [A,,E,] [A,,E,]2 [A,,A,]2 [A,,A,]2 [A,,E,]2 | %2
 [A,,A,]6 [C,A,]4 [E,G,E]2 | [A,E]2 [A,CE]2 [A,CE]2 [A,E]2 [G,B,E]2 [F,B,=D]2 | %4
[M:5/4] [E,G,D]2- [E,G,D]2- [E,G,D]6 |[M:1/4] [E,G,D]2 | %6
[M:6/4] [A,,A,]3 [A,,E,] [A,,E,]2 [A,,A,]2 [A,,A,]2 [A,,E,]2 | [A,,A,]6 [C,A,]4 [D,A,]2 | %8
 [E,A,E]3 [E,A,D] [E,A,C]2 [E,G,D]2 [E,A,D]2 [E,B,D]2 |[M:5/4] [A,,A,]2- [A,,A,]2- [A,,A,]6 | %10
[M:1/4][K:treble] [A,E]2 |[M:6/4] [A,CE]3 [A,CA] [A,CA]2 [A,CA]2[K:bass] [C,A,]2 [E,G,E]2 | %12
 [A,E]6 [A,CE]4 [A,EA]2 | [E,E]3 [E,E] [E,E]2 [G,B,]2 [G,B,E]2[K:treble] [G,B,E]2 | %14
[M:5/4] [A,E]2- [A,E]2- [A,E]6 |[M:1/4] [A,E]2 | %16
[M:6/4] [A,CE]3 [A,CA] [A,CA]2 [A,DA]2 [A,CA]2 [A,EA]2 | [A,CA]6[K:bass] [F,C]4 [F,=D]2 | %18
 [E,E]4 [E,E][E,E] [E,E]4 E,2 |[M:5/4] A,,2- A,,2- A,,6 |] %20

